;FLAVOR:Marlin
;TIME:3683
;Filament used: 2.14826m
;Layer height: 0.16
;MINX:62.281
;MINY:61.663
;MINZ:0.2
;MAXX:156.804
;MAXY:157.809
;MAXZ:3.48
;Generated with Cura_SteamEngine 5.4.0
M140 S70
M105
M190 S70
M104 S240
M105
M109 S240
M82 ;absolute extrusion mode
M201 X500.00 Y500.00 Z100.00 E5000.00 ;Setup machine max acceleration
M203 X500.00 Y500.00 Z10.00 E50.00 ;Setup machine max feedrate
M204 P500.00 R1000.00 T500.00 ;Setup Print/Retract/Travel acceleration
M205 X8.00 Y8.00 Z0.40 E5.00 ;Setup Jerk
M220 S100 ;Reset Feedrate
M221 S100 ;Reset Flowrate

G28 ;Home

G92 E0 ;Reset Extruder
G1 Z2.0 F3000 ;Move Z Axis up
G1 X10.1 Y20 Z0.28 F5000.0 ;Move to start position
G1 X10.1 Y200.0 Z0.28 F1500.0 E15 ;Draw the first line
G1 X10.4 Y200.0 Z0.28 F5000.0 ;Move to side a little
G1 X10.4 Y20 Z0.28 F1500.0 E30 ;Draw the second line
G92 E0 ;Reset Extruder
G1 Z2.0 F3000 ;Move Z Axis up

G92 E0
G92 E0
G1 F2700 E-5
;LAYER_COUNT:20
;LAYER:0
M107
G0 F6000 X68.215 Y66.974 Z0.2
;TYPE:SKIRT
G1 F2700 E0
G1 F900 X68.617 Y66.6 E0.01826
G1 X68.967 Y66.293 E0.03375
G1 X69.701 Y65.703 E0.06507
G1 X70.633 Y65.087 E0.10223
G1 X70.957 Y64.897 E0.11472
G1 X72.01 Y64.355 E0.15411
G1 X72.391 Y64.187 E0.16796
G1 X73.257 Y63.848 E0.19889
G1 X73.761 Y63.688 E0.21648
G1 X74.391 Y63.511 E0.23824
G1 X76.546 Y62.994 E0.31195
G1 X80.031 Y62.05 E0.43204
G1 X80.981 Y61.838 E0.46441
G1 X81.876 Y61.719 E0.49444
G1 X82.548 Y61.679 E0.51684
G1 X83.205 Y61.664 E0.53869
G1 X138.888 Y61.663 E2.39072
G1 X139.791 Y61.677 E2.42075
G1 X140.764 Y61.738 E2.45318
G1 X141.726 Y61.885 E2.48555
G1 X142.604 Y62.097 E2.51559
G1 X143.194 Y62.283 E2.53616
G1 X146.809 Y63.539 E2.66345
G1 X147.737 Y63.843 E2.69593
G1 X148.645 Y64.188 E2.72824
G1 X149.461 Y64.58 E2.75835
G1 X149.878 Y64.803 E2.77407
G1 X151.031 Y65.517 E2.81918
G1 X151.329 Y65.73 E2.83136
G1 X152.286 Y66.504 E2.8723
G1 X152.552 Y66.747 E2.88428
G1 X153.424 Y67.645 E2.92592
G1 X153.716 Y67.984 E2.9408
G1 X154.274 Y68.695 E2.97086
G1 X154.817 Y69.528 E3.00393
G1 X155.001 Y69.84 E3.01598
G1 X155.563 Y70.934 E3.05689
G1 X155.765 Y71.39 E3.07347
G1 X156.094 Y72.231 E3.10351
G1 X156.385 Y73.227 E3.13802
G1 X156.578 Y74.167 E3.16994
G1 X156.752 Y75.539 E3.21594
G1 X156.795 Y76.455 E3.24644
G1 X156.804 Y77.209 E3.27152
G1 X156.803 Y102.726 E4.12022
G1 X156.792 Y103.518 E4.14656
G1 X156.77 Y104.04 E4.16394
G1 X156.711 Y104.988 E4.19553
G1 X156.584 Y107.558 E4.28111
G1 X156.529 Y110.107 E4.36591
G1 X156.546 Y112.594 E4.44863
G1 X156.636 Y115.204 E4.53549
G1 X156.686 Y116.087 E4.56491
G1 X156.707 Y116.895 E4.59179
G1 X156.711 Y142.749 E5.4517
G1 X156.696 Y143.846 E5.48819
G1 X156.612 Y145.039 E5.52797
G1 X156.568 Y145.372 E5.53914
G1 X156.412 Y146.285 E5.56994
G1 X156.318 Y146.714 E5.58455
G1 X156.089 Y147.586 E5.61454
G1 X156.002 Y147.868 E5.62435
G1 X155.626 Y148.893 E5.66067
G1 X155.471 Y149.258 E5.67386
G1 X154.987 Y150.259 E5.71084
G1 X154.441 Y151.177 E5.74636
G1 X154.217 Y151.516 E5.75988
G1 X153.62 Y152.337 E5.79364
G1 X153.444 Y152.556 E5.80298
G1 X152.804 Y153.283 E5.8352
G1 X152.572 Y153.524 E5.84632
G1 X151.83 Y154.225 E5.88028
G1 X151.6 Y154.423 E5.89037
G1 X150.821 Y155.032 E5.92326
G1 X150.51 Y155.253 E5.93595
G1 X149.674 Y155.791 E5.96901
G1 X149.424 Y155.936 E5.97862
G1 X148.551 Y156.39 E6.01135
G1 X148.21 Y156.546 E6.02382
G1 X147.304 Y156.915 E6.05636
G1 X146.953 Y157.039 E6.06874
G1 X146.031 Y157.319 E6.10079
G1 X145.743 Y157.391 E6.11067
G1 X144.776 Y157.588 E6.14349
G1 X144.419 Y157.644 E6.15551
G1 X143.367 Y157.755 E6.19069
G1 X142.62 Y157.795 E6.21557
G1 X142.063 Y157.809 E6.2341
G1 X77.133 Y157.808 E8.39368
G1 X76.205 Y157.79 E8.42456
G1 X75.117 Y157.714 E8.46083
G1 X74.683 Y157.66 E8.47538
G1 X73.666 Y157.485 E8.5097
G1 X73.368 Y157.419 E8.51985
G1 X72.519 Y157.192 E8.54908
G1 X72.145 Y157.075 E8.56212
G1 X71.216 Y156.734 E8.59503
G1 X70.883 Y156.592 E8.60707
G1 X69.998 Y156.169 E8.6397
G1 X69.679 Y155.997 E8.65175
G1 X68.736 Y155.433 E8.6883
G1 X67.835 Y154.778 E8.72534
G1 X67.509 Y154.517 E8.73923
G1 X66.764 Y153.862 E8.77223
G1 X66.542 Y153.645 E8.78255
G1 X65.848 Y152.907 E8.81625
G1 X65.624 Y152.644 E8.82774
G1 X65.041 Y151.897 E8.85925
G1 X64.853 Y151.632 E8.87006
G1 X64.337 Y150.832 E8.90172
G1 X64.133 Y150.482 E8.9152
G1 X63.593 Y149.436 E8.95435
G1 X63.191 Y148.442 E8.99001
G1 X63.05 Y148.043 E9.00409
G1 X62.727 Y146.966 E9.04148
G1 X62.505 Y145.875 E9.07852
G1 X62.434 Y145.424 E9.0937
G1 X62.336 Y144.55 E9.12295
G1 X62.295 Y143.742 E9.14986
G1 X62.281 Y142.878 E9.1786
G1 X62.282 Y117.284 E10.02986
G1 X62.296 Y116.337 E10.06136
G1 X62.389 Y115.081 E10.10325
G1 X62.513 Y114.216 E10.13231
G1 X63.105 Y110.821 E10.24694
G1 X63.463 Y108.341 E10.33028
G1 X63.749 Y105.867 E10.41311
G1 X63.972 Y103.307 E10.49858
G1 X64.115 Y100.844 E10.58064
G1 X64.191 Y98.312 E10.66489
G1 X64.216 Y94.646 E10.78682
G1 X64.379 Y91.64 E10.88695
G1 X64.453 Y89.073 E10.97236
G1 X64.453 Y86.563 E11.05585
G1 X64.382 Y84.035 E11.13996
G1 X64.23 Y81.307 E11.23084
G1 X64.204 Y80.158 E11.26906
G1 X64.203 Y77.192 E11.36771
G1 X64.214 Y76.306 E11.39718
G1 X64.247 Y75.615 E11.42019
G1 X64.273 Y75.3 E11.4307
G1 X64.414 Y74.205 E11.46743
G1 X64.744 Y72.811 E11.51507
G1 X64.867 Y72.408 E11.52909
G1 X65.182 Y71.523 E11.56033
G1 X65.614 Y70.581 E11.5948
G1 X65.838 Y70.151 E11.61092
G1 X66.637 Y68.836 E11.6621
G1 X67.326 Y67.944 E11.69959
G1 X67.559 Y67.674 E11.71145
G1 X68.215 Y66.974 E11.74336
G0 F6000 X68.488 Y67.267
G1 F900 X68.881 Y66.901 E11.76122
G1 X69.218 Y66.605 E11.77614
G1 X69.952 Y66.015 E11.80746
G1 X70.835 Y65.432 E11.84265
G1 X71.14 Y65.253 E11.85442
G1 X72.172 Y64.721 E11.89303
G1 X72.537 Y64.559 E11.90632
G1 X73.378 Y64.229 E11.93636
G1 X73.869 Y64.073 E11.9535
G1 X74.484 Y63.9 E11.97475
G1 X76.647 Y63.381 E12.04873
G1 X80.118 Y62.44 E12.16834
G1 X81.034 Y62.235 E12.19956
G1 X81.929 Y62.116 E12.22959
G1 X82.557 Y62.079 E12.25052
G1 X83.205 Y62.064 E12.27208
G1 X138.882 Y62.063 E14.1239
G1 X139.767 Y62.076 E14.15334
G1 X140.704 Y62.133 E14.18456
G1 X141.632 Y62.274 E14.21578
G1 X142.51 Y62.486 E14.24582
G1 X143.063 Y62.661 E14.26511
G1 X146.678 Y63.917 E14.3924
G1 X147.595 Y64.217 E14.42449
G1 X148.472 Y64.549 E14.45568
G1 X149.272 Y64.933 E14.48519
G1 X149.689 Y65.156 E14.50092
G1 X150.82 Y65.857 E14.54518
G1 X151.077 Y66.041 E14.55569
G1 X152.034 Y66.815 E14.59663
G1 X152.265 Y67.026 E14.60704
G1 X153.137 Y67.924 E14.64867
G1 X153.401 Y68.231 E14.66213
G1 X153.959 Y68.942 E14.6922
G1 X154.473 Y69.732 E14.72354
G1 X154.645 Y70.023 E14.73479
G1 X155.197 Y71.096 E14.77492
G1 X155.392 Y71.536 E14.79093
G1 X155.721 Y72.377 E14.82096
G1 X155.993 Y73.308 E14.85322
G1 X156.181 Y74.218 E14.88413
G1 X156.352 Y75.558 E14.92906
G1 X156.395 Y76.46 E14.95909
G1 X156.404 Y77.209 E14.98401
G1 X156.403 Y102.72 E15.83251
G1 X156.392 Y103.502 E15.85852
G1 X156.371 Y104.015 E15.87559
G1 X156.311 Y104.968 E15.90735
G1 X156.184 Y107.538 E15.99294
G1 X156.129 Y110.098 E16.0781
G1 X156.146 Y112.608 E16.16159
G1 X156.237 Y115.218 E16.24845
G1 X156.286 Y116.098 E16.27776
G1 X156.307 Y116.895 E16.30428
G1 X156.311 Y142.744 E17.16402
G1 X156.297 Y143.818 E17.19975
G1 X156.215 Y144.988 E17.23876
G1 X156.174 Y145.305 E17.24939
G1 X156.021 Y146.2 E17.27959
G1 X155.931 Y146.613 E17.29365
G1 X155.707 Y147.468 E17.32304
G1 X155.626 Y147.731 E17.3322
G1 X155.258 Y148.737 E17.36782
G1 X155.111 Y149.084 E17.38036
G1 X154.643 Y150.055 E17.41621
G1 X154.107 Y150.957 E17.45111
G1 X153.893 Y151.281 E17.46402
G1 X153.308 Y152.086 E17.49712
G1 X153.132 Y152.305 E17.50646
G1 X152.515 Y153.006 E17.53752
G1 X152.297 Y153.233 E17.54799
G1 X151.569 Y153.922 E17.58133
G1 X151.353 Y154.108 E17.59081
G1 X150.589 Y154.706 E17.62308
G1 X150.278 Y154.927 E17.63577
G1 X149.473 Y155.445 E17.66761
G1 X149.239 Y155.581 E17.67661
G1 X148.366 Y156.035 E17.70934
G1 X148.059 Y156.176 E17.72058
G1 X147.171 Y156.538 E17.75247
G1 X146.837 Y156.656 E17.76425
G1 X145.933 Y156.931 E17.79568
G1 X145.663 Y156.999 E17.80494
G1 X144.714 Y157.193 E17.83716
G1 X144.377 Y157.246 E17.8485
G1 X143.325 Y157.357 E17.88369
G1 X142.61 Y157.395 E17.9075
G1 X142.063 Y157.409 E17.9257
G1 X77.14 Y157.408 E20.08505
G1 X76.233 Y157.391 E20.11522
G1 X75.166 Y157.317 E20.15079
G1 X74.751 Y157.266 E20.1647
G1 X73.753 Y157.095 E20.19838
G1 X73.471 Y157.032 E20.20799
G1 X72.638 Y156.81 E20.23666
G1 X72.283 Y156.699 E20.24903
G1 X71.354 Y156.358 E20.28195
G1 X71.055 Y156.231 E20.29275
G1 X70.188 Y155.817 E20.32471
G1 X69.884 Y155.653 E20.3362
G1 X68.971 Y155.109 E20.37154
G1 X68.085 Y154.466 E20.40796
G1 X67.773 Y154.216 E20.42125
G1 X67.043 Y153.575 E20.45356
G1 X66.833 Y153.371 E20.4633
G1 X66.152 Y152.648 E20.49634
G1 X65.939 Y152.398 E20.50726
G1 X65.367 Y151.666 E20.53816
G1 X65.189 Y151.415 E20.54839
G1 X64.682 Y150.63 E20.57947
G1 X64.488 Y150.298 E20.59226
G1 X63.964 Y149.286 E20.63017
G1 X63.568 Y148.309 E20.66523
G1 X63.433 Y147.927 E20.67871
G1 X63.119 Y146.886 E20.71487
G1 X62.9 Y145.813 E20.75129
G1 X62.832 Y145.379 E20.76591
G1 X62.734 Y144.505 E20.79516
G1 X62.695 Y143.735 E20.8208
G1 X62.681 Y142.878 E20.84931
G1 X62.682 Y117.29 E21.70037
G1 X62.695 Y116.366 E21.7311
G1 X62.785 Y115.138 E21.77206
G1 X62.907 Y114.285 E21.80072
G1 X63.499 Y110.89 E21.91534
G1 X63.859 Y108.398 E21.99908
G1 X64.146 Y105.913 E22.08228
G1 X64.37 Y103.342 E22.16812
G1 X64.515 Y100.856 E22.25095
G1 X64.591 Y98.324 E22.3352
G1 X64.616 Y94.662 E22.457
G1 X64.633 Y94.228 E22.47145
G1 X64.779 Y91.652 E22.55726
G1 X64.853 Y89.085 E22.64267
G1 X64.853 Y86.563 E22.72656
G1 X64.782 Y84.024 E22.81104
G1 X64.63 Y81.298 E22.90185
G1 X64.604 Y80.158 E22.93977
G1 X64.603 Y77.197 E23.03826
G1 X64.614 Y76.325 E23.06726
G1 X64.646 Y75.647 E23.08984
G1 X64.67 Y75.351 E23.09971
G1 X64.811 Y74.256 E23.13643
G1 X65.133 Y72.904 E23.18266
G1 X65.244 Y72.542 E23.19525
G1 X65.559 Y71.657 E23.2265
G1 X65.969 Y70.766 E23.25912
G1 X66.193 Y70.336 E23.27524
G1 X66.954 Y69.081 E23.32406
G1 X67.643 Y68.189 E23.36155
G1 X67.851 Y67.947 E23.37216
G1 X68.488 Y67.267 E23.40315
G0 F6000 X68.76 Y67.56
G1 F900 X69.146 Y67.201 E23.42068
G1 X69.469 Y66.916 E23.43501
G1 X70.172 Y66.349 E23.46505
G1 X71.038 Y65.777 E23.49957
G1 X71.323 Y65.609 E23.51057
G1 X72.355 Y65.077 E23.54919
G1 X72.683 Y64.931 E23.56113
G1 X73.524 Y64.601 E23.59118
G1 X73.977 Y64.458 E23.60698
G1 X74.582 Y64.288 E23.62788
G1 X75.097 Y64.158 E23.64555
G1 X76.752 Y63.767 E23.70211
G1 X80.206 Y62.83 E23.82114
G1 X81.087 Y62.632 E23.85117
G1 X81.982 Y62.513 E23.8812
G1 X82.566 Y62.479 E23.90066
G1 X83.205 Y62.464 E23.92192
G1 X138.876 Y62.463 E25.77355
G1 X139.743 Y62.475 E25.80238
G1 X140.645 Y62.529 E25.83244
G1 X141.538 Y62.663 E25.86247
G1 X142.416 Y62.875 E25.89251
G1 X142.932 Y63.039 E25.91052
G1 X146.547 Y64.295 E26.03781
G1 X147.454 Y64.591 E26.06954
G1 X148.299 Y64.91 E26.09958
G1 X149.084 Y65.286 E26.12853
G1 X149.478 Y65.496 E26.14338
G1 X150.609 Y66.197 E26.18764
G1 X150.826 Y66.352 E26.19651
G1 X151.765 Y67.111 E26.23667
G1 X151.978 Y67.305 E26.24625
G1 X152.85 Y68.203 E26.28788
G1 X153.086 Y68.478 E26.29993
G1 X153.644 Y69.189 E26.32999
G1 X154.129 Y69.935 E26.35959
G1 X154.289 Y70.206 E26.37006
G1 X154.831 Y71.258 E26.40942
G1 X155.019 Y71.682 E26.42484
G1 X155.348 Y72.523 E26.45488
G1 X155.601 Y73.389 E26.48489
G1 X155.784 Y74.269 E26.51478
G1 X155.952 Y75.577 E26.55864
G1 X155.995 Y76.465 E26.58821
G1 X156.004 Y77.209 E26.61296
G1 X156.003 Y102.714 E27.46126
G1 X155.992 Y103.486 E27.48694
G1 X155.972 Y103.99 E27.50372
G1 X155.911 Y104.948 E27.53564
G1 X155.784 Y107.518 E27.62123
G1 X155.729 Y110.089 E27.70676
G1 X155.746 Y112.622 E27.79101
G1 X155.838 Y115.232 E27.87787
G1 X155.886 Y116.109 E27.90708
G1 X155.907 Y116.895 E27.93323
G1 X155.911 Y142.739 E28.79281
G1 X155.898 Y143.79 E28.82777
G1 X155.818 Y144.938 E28.86604
G1 X155.78 Y145.238 E28.8761
G1 X155.63 Y146.115 E28.90569
G1 X155.544 Y146.512 E28.91921
G1 X155.325 Y147.35 E28.94801
G1 X155.25 Y147.594 E28.9565
G1 X154.89 Y148.581 E28.99145
G1 X154.75 Y148.911 E29.00337
G1 X154.299 Y149.851 E29.03805
G1 X153.773 Y150.737 E29.07232
G1 X153.57 Y151.046 E29.08461
G1 X152.996 Y151.835 E29.11707
G1 X152.82 Y152.054 E29.12641
G1 X152.226 Y152.729 E29.15632
G1 X152.008 Y152.956 E29.16678
G1 X151.308 Y153.619 E29.19885
G1 X151.106 Y153.793 E29.20772
G1 X150.357 Y154.38 E29.23937
G1 X150.046 Y154.601 E29.25206
G1 X149.272 Y155.099 E29.28267
G1 X149.054 Y155.226 E29.29106
G1 X148.198 Y155.672 E29.32317
G1 X147.908 Y155.806 E29.33379
G1 X147.037 Y156.161 E29.36507
G1 X146.721 Y156.273 E29.37622
G1 X145.834 Y156.543 E29.40706
G1 X145.583 Y156.607 E29.41568
G1 X144.652 Y156.798 E29.44729
G1 X144.335 Y156.848 E29.45796
G1 X143.283 Y156.959 E29.49315
G1 X142.6 Y156.995 E29.51589
G1 X142.063 Y157.009 E29.53376
G1 X77.147 Y157.008 E31.69288
G1 X76.26 Y156.992 E31.72238
G1 X75.214 Y156.92 E31.75726
G1 X74.819 Y156.872 E31.77049
G1 X73.84 Y156.704 E31.80353
G1 X73.574 Y156.645 E31.81259
G1 X72.741 Y156.423 E31.84126
G1 X72.421 Y156.323 E31.85241
G1 X71.492 Y155.982 E31.88533
G1 X71.227 Y155.87 E31.8949
G1 X70.377 Y155.464 E31.92623
G1 X70.088 Y155.309 E31.93713
G1 X69.206 Y154.785 E31.97126
G1 X68.335 Y154.153 E32.00705
G1 X68.037 Y153.915 E32.01973
G1 X67.321 Y153.287 E32.05141
G1 X67.124 Y153.097 E32.06051
G1 X66.456 Y152.388 E32.09291
G1 X66.254 Y152.152 E32.10324
G1 X65.693 Y151.434 E32.13355
G1 X65.525 Y151.198 E32.14319
G1 X65.027 Y150.428 E32.17369
G1 X64.843 Y150.113 E32.18582
G1 X64.335 Y149.136 E32.22244
G1 X63.945 Y148.175 E32.25694
G1 X63.816 Y147.811 E32.26978
G1 X63.511 Y146.806 E32.30471
G1 X63.295 Y145.751 E32.34053
G1 X63.23 Y145.334 E32.35457
G1 X63.132 Y144.46 E32.38382
G1 X63.095 Y143.728 E32.4082
G1 X63.081 Y142.878 E32.43647
G1 X63.082 Y117.295 E33.28737
G1 X63.094 Y116.395 E33.3173
G1 X63.181 Y115.195 E33.35732
G1 X63.301 Y114.354 E33.38558
G1 X63.893 Y110.959 E33.5002
G1 X64.255 Y108.455 E33.58435
G1 X64.543 Y105.959 E33.66792
G1 X64.768 Y103.377 E33.75412
G1 X64.915 Y100.868 E33.83771
G1 X64.991 Y98.336 E33.92196
G1 X65.005 Y95.405 E34.01945
G1 X65.016 Y94.677 E34.04367
G1 X65.032 Y94.251 E34.05785
G1 X65.179 Y91.664 E34.14403
G1 X65.253 Y89.097 E34.22944
G1 X65.253 Y86.563 E34.31372
G1 X65.182 Y84.013 E34.39857
G1 X65.03 Y81.289 E34.48931
G1 X65.004 Y80.158 E34.52694
G1 X65.003 Y77.202 E34.62526
G1 X65.014 Y76.344 E34.65379
G1 X65.045 Y75.679 E34.67594
G1 X65.067 Y75.402 E34.68518
G1 X65.208 Y74.307 E34.7219
G1 X65.516 Y73.02 E34.76591
G1 X65.621 Y72.675 E34.77791
G1 X65.922 Y71.824 E34.80793
G1 X66.324 Y70.95 E34.83993
G1 X66.535 Y70.543 E34.85518
G1 X67.271 Y69.326 E34.90248
G1 X67.96 Y68.434 E34.93997
G1 X68.143 Y68.22 E34.94933
G1 X68.76 Y67.56 E34.97938
G1 F2700 E29.97938
G0 F6000 X83.075 Y74.357
G1 F2700 E34.97938
G1 F900 X83.155 Y74.353 E34.98205
G1 X139.324 Y74.355 E36.85024
G1 X139.384 Y74.357 E36.85223
G1 X139.384 Y74.404 E36.8538
G1 X139.339 Y74.414 E36.85533
G1 X139.232 Y74.479 E36.85949
G1 X139.204 Y74.555 E36.86219
G1 X83.252 Y74.557 E38.72316
G1 X83.236 Y74.509 E38.72484
G1 X83.129 Y74.435 E38.72917
G1 X83.075 Y74.42 E38.73103
G1 X83.075 Y74.357 E38.73313
G0 F6000 X83.075 Y73.956
;TYPE:SUPPORT-INTERFACE
G1 F900 X83.075 Y72.99 E38.76526
G1 X139.384 Y72.99 E40.6381
G1 X139.384 Y73.956 E40.67023
G1 X139.332 Y73.955 E40.67196
G1 X83.142 Y73.953 E42.54085
G1 X83.075 Y73.956 E42.54308
G0 F6000 X83.372 Y73.19
G1 F900 X83.934 Y73.752 E42.56951
G1 F2700 E37.56951
G0 F6000 X85.769 Y73.753
G1 F2700 E42.56951
G1 F900 X86.333 Y73.189 E42.59604
G0 F6000 X86.766 Y73.19
G1 F900 X87.329 Y73.752 E42.6225
G1 F2700 E37.6225
G0 F6000 X89.164 Y73.753
