;FLAVOR:Marlin
;TIME:3680
;Filament used: 2.14898m
;Layer height: 0.16
;MINX:62.281
;MINY:63.104
;MINZ:0.2
;MAXX:156.804
;MAXY:157.809
;MAXZ:3.48
;Generated with Cura_SteamEngine 5.4.0
M140 S70
M105
M190 S70
M104 S240
M105
M109 S240
M82 ;absolute extrusion mode
M201 X500.00 Y500.00 Z100.00 E5000.00 ;Setup machine max acceleration
M203 X500.00 Y500.00 Z10.00 E50.00 ;Setup machine max feedrate
M204 P500.00 R1000.00 T500.00 ;Setup Print/Retract/Travel acceleration
M205 X8.00 Y8.00 Z0.40 E5.00 ;Setup Jerk
M220 S100 ;Reset Feedrate
M221 S100 ;Reset Flowrate

G28 ;Home

G92 E0 ;Reset Extruder
G1 Z2.0 F3000 ;Move Z Axis up
G1 X10.1 Y20 Z0.28 F5000.0 ;Move to start position
G1 X10.1 Y200.0 Z0.28 F1500.0 E15 ;Draw the first line
G1 X10.4 Y200.0 Z0.28 F5000.0 ;Move to side a little
G1 X10.4 Y20 Z0.28 F1500.0 E30 ;Draw the second line
G92 E0 ;Reset Extruder
G1 Z2.0 F3000 ;Move Z Axis up

G92 E0
G92 E0
G1 F2700 E-5
;LAYER_COUNT:20
;LAYER:0
M107
G0 F6000 X68.215 Y66.974 Z0.2
;TYPE:SKIRT
G1 F2700 E0
G1 F900 X68.617 Y66.6 E0.01826
G1 X68.967 Y66.293 E0.03375
G1 X69.701 Y65.703 E0.06507
G1 X70.633 Y65.087 E0.10223
G1 X70.957 Y64.897 E0.11472
G1 X72.01 Y64.355 E0.15411
G1 X72.391 Y64.186 E0.16797
G1 X73.26 Y63.846 E0.19901
G1 X73.993 Y63.621 E0.22451
G1 X74.99 Y63.384 E0.2586
G1 X75.347 Y63.317 E0.27068
G1 X76.507 Y63.166 E0.30958
G1 X77.429 Y63.116 E0.34029
G1 X78.29 Y63.104 E0.36893
G1 X81.573 Y63.106 E0.47813
G1 X82.292 Y63.119 E0.50205
G1 X83.264 Y63.181 E0.53444
G1 X84.226 Y63.328 E0.56681
G1 X85.146 Y63.552 E0.5983
G1 X87.605 Y64.267 E0.68347
G1 X89.996 Y64.888 E0.76564
G1 X92.52 Y65.468 E0.85177
G1 X94.94 Y65.954 E0.93387
G1 X97.412 Y66.377 E1.01729
G1 X99.909 Y66.733 E1.10118
G1 X102.429 Y67.019 E1.18553
G1 X104.918 Y67.233 E1.26862
G1 X107.433 Y67.374 E1.3524
G1 X109.967 Y67.446 E1.43671
G1 X112.455 Y67.446 E1.51947
G1 X114.995 Y67.374 E1.60398
G1 X117.502 Y67.234 E1.68749
G1 X120.004 Y67.021 E1.77101
G1 X122.507 Y66.736 E1.8548
G1 X125 Y66.381 E1.93855
G1 X127.481 Y65.956 E2.02227
G1 X129.926 Y65.466 E2.10521
G1 X132.395 Y64.899 E2.18947
G1 X134.873 Y64.254 E2.27463
G1 X137.386 Y63.533 E2.36159
G1 X138.334 Y63.308 E2.394
G1 X139.228 Y63.176 E2.42405
G1 X140.061 Y63.12 E2.45182
G1 X140.713 Y63.105 E2.47351
G1 X142.71 Y63.104 E2.53993
G1 X143.748 Y63.119 E2.57446
G1 X144.707 Y63.176 E2.60641
G1 X145.29 Y63.253 E2.62597
G1 X145.671 Y63.314 E2.63881
G1 X146.584 Y63.503 E2.66982
G1 X147.467 Y63.756 E2.70037
G1 X148.32 Y64.053 E2.73041
G1 X149.422 Y64.56 E2.77075
G1 X149.862 Y64.794 E2.78733
G1 X151.003 Y65.497 E2.8319
G1 X151.291 Y65.702 E2.84366
G1 X152.304 Y66.52 E2.88697
G1 X152.552 Y66.747 E2.89815
G1 X153.424 Y67.645 E2.93978
G1 X153.716 Y67.984 E2.95466
G1 X154.274 Y68.695 E2.98472
G1 X154.817 Y69.528 E3.0178
G1 X155.001 Y69.84 E3.02984
G1 X155.563 Y70.934 E3.07075
G1 X155.765 Y71.39 E3.08734
G1 X156.094 Y72.231 E3.11737
G1 X156.385 Y73.227 E3.15189
G1 X156.577 Y74.163 E3.18367
G1 X156.75 Y75.517 E3.22907
G1 X156.795 Y76.456 E3.26033
G1 X156.804 Y77.21 E3.28541
G1 X156.803 Y102.726 E4.13408
G1 X156.792 Y103.519 E4.16046
G1 X156.77 Y104.041 E4.17783
G1 X156.711 Y104.989 E4.20943
G1 X156.584 Y107.559 E4.29501
G1 X156.529 Y110.108 E4.37981
G1 X156.546 Y112.593 E4.46246
G1 X156.636 Y115.208 E4.54949
G1 X156.686 Y116.087 E4.57877
G1 X156.707 Y116.895 E4.60565
G1 X156.711 Y142.749 E5.46556
G1 X156.696 Y143.846 E5.50205
G1 X156.612 Y145.039 E5.54183
G1 X156.568 Y145.372 E5.553
G1 X156.412 Y146.285 E5.58381
G1 X156.318 Y146.714 E5.59841
G1 X156.089 Y147.586 E5.6284
G1 X156.002 Y147.868 E5.63822
G1 X155.626 Y148.893 E5.67453
G1 X155.471 Y149.258 E5.68772
G1 X154.987 Y150.259 E5.7247
G1 X154.441 Y151.177 E5.76023
G1 X154.217 Y151.516 E5.77374
G1 X153.62 Y152.337 E5.8075
G1 X153.444 Y152.556 E5.81685
G1 X152.804 Y153.283 E5.84906
G1 X152.572 Y153.524 E5.86019
G1 X151.83 Y154.225 E5.89414
G1 X151.6 Y154.423 E5.90423
G1 X150.821 Y155.032 E5.93712
G1 X150.51 Y155.253 E5.94981
G1 X149.674 Y155.791 E5.98288
G1 X149.424 Y155.936 E5.99249
G1 X148.551 Y156.39 E6.02522
G1 X148.21 Y156.546 E6.03769
G1 X147.304 Y156.915 E6.07023
G1 X146.953 Y157.039 E6.08261
G1 X146.031 Y157.319 E6.11466
G1 X145.743 Y157.391 E6.12453
G1 X144.776 Y157.588 E6.15735
G1 X144.419 Y157.644 E6.16937
G1 X143.367 Y157.755 E6.20456
G1 X142.62 Y157.795 E6.22944
G1 X142.063 Y157.809 E6.24797
G1 X77.133 Y157.808 E8.40755
G1 X76.205 Y157.79 E8.43842
G1 X75.117 Y157.714 E8.47469
G1 X74.683 Y157.66 E8.48924
G1 X73.666 Y157.485 E8.52356
G1 X73.368 Y157.419 E8.53372
G1 X72.519 Y157.192 E8.56295
G1 X72.145 Y157.075 E8.57598
G1 X71.216 Y156.734 E8.60889
G1 X70.883 Y156.592 E8.62093
G1 X69.998 Y156.169 E8.65356
G1 X69.679 Y155.997 E8.66561
G1 X68.736 Y155.433 E8.70216
G1 X67.835 Y154.778 E8.73921
G1 X67.509 Y154.517 E8.7531
G1 X66.764 Y153.862 E8.78609
G1 X66.542 Y153.645 E8.79642
G1 X65.848 Y152.907 E8.83011
G1 X65.624 Y152.644 E8.8416
G1 X65.041 Y151.897 E8.87312
G1 X64.853 Y151.632 E8.88392
G1 X64.337 Y150.832 E8.91559
G1 X64.133 Y150.482 E8.92906
G1 X63.593 Y149.436 E8.96821
G1 X63.191 Y148.442 E9.00388
G1 X63.05 Y148.043 E9.01795
G1 X62.727 Y146.966 E9.05535
G1 X62.505 Y145.875 E9.09238
G1 X62.434 Y145.424 E9.10756
G1 X62.336 Y144.55 E9.13682
G1 X62.295 Y143.742 E9.16372
G1 X62.281 Y142.878 E9.19246
G1 X62.282 Y117.284 E10.04372
G1 X62.296 Y116.337 E10.07523
G1 X62.389 Y115.081 E10.11711
G1 X62.513 Y114.216 E10.14618
G1 X63.105 Y110.821 E10.2608
G1 X63.463 Y108.341 E10.34414
G1 X63.749 Y105.867 E10.42697
G1 X63.972 Y103.307 E10.51244
G1 X64.115 Y100.844 E10.5945
G1 X64.191 Y98.312 E10.67875
G1 X64.216 Y94.646 E10.80069
G1 X64.379 Y91.64 E10.90081
G1 X64.453 Y89.073 E10.98623
G1 X64.453 Y86.563 E11.06971
G1 X64.382 Y84.035 E11.15383
G1 X64.23 Y81.307 E11.2447
G1 X64.204 Y80.158 E11.28293
G1 X64.203 Y77.192 E11.38158
G1 X64.214 Y76.306 E11.41105
G1 X64.247 Y75.615 E11.43406
G1 X64.273 Y75.3 E11.44457
G1 X64.414 Y74.205 E11.48129
G1 X64.744 Y72.811 E11.52893
G1 X64.867 Y72.408 E11.54295
G1 X65.182 Y71.523 E11.57419
G1 X65.614 Y70.581 E11.60866
G1 X65.838 Y70.151 E11.62479
G1 X66.637 Y68.836 E11.67597
G1 X67.326 Y67.944 E11.71345
G1 X67.559 Y67.674 E11.72532
G1 X68.215 Y66.974 E11.75722
G0 F6000 X68.488 Y67.267
G1 F900 X68.881 Y66.901 E11.77508
G1 X69.218 Y66.605 E11.79
G1 X69.952 Y66.015 E11.82133
G1 X70.835 Y65.432 E11.85652
G1 X71.14 Y65.253 E11.86828
G1 X72.172 Y64.721 E11.9069
G1 X72.537 Y64.559 E11.92018
G1 X73.406 Y64.219 E11.95122
G1 X74.086 Y64.01 E11.97488
G1 X75.064 Y63.777 E12.00832
G1 X75.399 Y63.714 E12.01965
G1 X76.559 Y63.563 E12.05856
G1 X77.435 Y63.516 E12.08774
G1 X78.29 Y63.504 E12.11618
G1 X81.566 Y63.506 E12.22514
G1 X82.267 Y63.518 E12.24846
G1 X83.204 Y63.576 E12.27968
G1 X84.132 Y63.717 E12.3109
G1 X85.034 Y63.936 E12.34177
G1 X87.498 Y64.652 E12.42712
G1 X89.906 Y65.278 E12.50987
G1 X92.43 Y65.858 E12.59601
G1 X94.859 Y66.346 E12.67841
G1 X97.356 Y66.773 E12.76266
G1 X99.853 Y67.129 E12.84655
G1 X102.395 Y67.418 E12.93165
G1 X104.884 Y67.631 E13.01473
G1 X107.422 Y67.774 E13.09928
G1 X109.956 Y67.846 E13.1836
G1 X112.466 Y67.846 E13.26708
G1 X115.006 Y67.774 E13.35159
G1 X117.536 Y67.632 E13.43588
G1 X120.038 Y67.419 E13.51939
G1 X122.563 Y67.132 E13.60392
G1 X125.056 Y66.777 E13.68767
G1 X127.562 Y66.348 E13.77223
G1 X130.016 Y65.856 E13.85548
G1 X132.485 Y65.289 E13.93973
G1 X134.974 Y64.641 E14.02528
G1 X137.479 Y63.922 E14.11196
G1 X138.392 Y63.704 E14.14318
G1 X139.286 Y63.572 E14.17324
G1 X140.07 Y63.52 E14.19937
G1 X140.713 Y63.505 E14.22076
G1 X142.705 Y63.504 E14.28702
G1 X143.724 Y63.518 E14.32091
G1 X144.655 Y63.573 E14.35193
G1 X145.227 Y63.648 E14.37112
G1 X145.59 Y63.706 E14.38334
G1 X146.503 Y63.895 E14.41435
G1 X147.335 Y64.134 E14.44315
G1 X148.188 Y64.431 E14.47319
G1 X149.234 Y64.913 E14.51149
G1 X149.652 Y65.135 E14.52723
G1 X150.793 Y65.838 E14.57181
G1 X151.04 Y66.013 E14.58188
G1 X152.034 Y66.815 E14.62436
G1 X152.265 Y67.026 E14.63476
G1 X153.137 Y67.924 E14.6764
G1 X153.401 Y68.231 E14.68986
G1 X153.959 Y68.942 E14.71992
G1 X154.473 Y69.732 E14.75127
G1 X154.645 Y70.023 E14.76251
G1 X155.197 Y71.096 E14.80265
G1 X155.392 Y71.536 E14.81866
G1 X155.721 Y72.377 E14.84869
G1 X155.993 Y73.308 E14.88095
G1 X156.18 Y74.214 E14.91172
G1 X156.35 Y75.536 E14.95605
G1 X156.395 Y76.461 E14.98685
G1 X156.404 Y77.21 E15.01177
G1 X156.403 Y102.72 E15.86023
G1 X156.392 Y103.503 E15.88628
G1 X156.371 Y104.016 E15.90336
G1 X156.311 Y104.969 E15.93512
G1 X156.184 Y107.539 E16.0207
G1 X156.129 Y110.099 E16.10586
G1 X156.146 Y112.607 E16.18928
G1 X156.237 Y115.222 E16.27631
G1 X156.286 Y116.098 E16.30549
G1 X156.307 Y116.895 E16.33201
G1 X156.311 Y142.744 E17.19175
G1 X156.297 Y143.818 E17.22747
G1 X156.215 Y144.988 E17.26648
G1 X156.174 Y145.305 E17.27712
G1 X156.021 Y146.2 E17.30732
G1 X155.931 Y146.613 E17.32137
G1 X155.707 Y147.468 E17.35077
G1 X155.626 Y147.731 E17.35992
G1 X155.258 Y148.737 E17.39555
G1 X155.111 Y149.084 E17.40809
G1 X154.643 Y150.055 E17.44394
G1 X154.107 Y150.957 E17.47884
G1 X153.893 Y151.281 E17.49175
G1 X153.308 Y152.086 E17.52485
G1 X153.132 Y152.305 E17.53419
G1 X152.515 Y153.006 E17.56525
G1 X152.297 Y153.233 E17.57572
G1 X151.569 Y153.922 E17.60906
G1 X151.353 Y154.108 E17.61854
G1 X150.589 Y154.706 E17.65081
G1 X150.278 Y154.927 E17.6635
G1 X149.473 Y155.445 E17.69534
G1 X149.239 Y155.581 E17.70434
G1 X148.366 Y156.035 E17.73707
G1 X148.059 Y156.176 E17.7483
G1 X147.171 Y156.538 E17.7802
G1 X146.837 Y156.656 E17.79198
G1 X145.933 Y156.931 E17.82341
G1 X145.663 Y156.999 E17.83267
G1 X144.714 Y157.193 E17.86488
G1 X144.377 Y157.246 E17.87623
G1 X143.325 Y157.357 E17.91141
G1 X142.61 Y157.395 E17.93523
G1 X142.063 Y157.409 E17.95343
G1 X77.14 Y157.408 E20.11278
G1 X76.233 Y157.391 E20.14295
G1 X75.166 Y157.317 E20.17852
G1 X74.751 Y157.266 E20.19243
G1 X73.753 Y157.095 E20.22611
G1 X73.471 Y157.032 E20.23572
G1 X72.638 Y156.81 E20.26439
G1 X72.283 Y156.699 E20.27676
G1 X71.354 Y156.358 E20.30967
G1 X71.055 Y156.231 E20.32048
G1 X70.188 Y155.817 E20.35244
G1 X69.884 Y155.653 E20.36392
G1 X68.971 Y155.109 E20.39927
G1 X68.085 Y154.466 E20.43568
G1 X67.773 Y154.216 E20.44898
G1 X67.043 Y153.575 E20.48129
G1 X66.833 Y153.371 E20.49103
G1 X66.152 Y152.648 E20.52406
G1 X65.939 Y152.398 E20.53499
G1 X65.367 Y151.666 E20.56589
G1 X65.189 Y151.415 E20.57612
G1 X64.682 Y150.63 E20.6072
G1 X64.488 Y150.298 E20.61999
G1 X63.964 Y149.286 E20.6579
G1 X63.568 Y148.309 E20.69296
G1 X63.433 Y147.927 E20.70643
G1 X63.119 Y146.886 E20.7426
G1 X62.9 Y145.813 E20.77902
G1 X62.832 Y145.379 E20.79363
G1 X62.734 Y144.505 E20.82288
G1 X62.695 Y143.735 E20.84853
G1 X62.681 Y142.878 E20.87704
G1 X62.682 Y117.29 E21.7281
G1 X62.695 Y116.366 E21.75883
G1 X62.785 Y115.138 E21.79978
G1 X62.907 Y114.285 E21.82844
G1 X63.499 Y110.89 E21.94307
G1 X63.859 Y108.398 E22.02681
G1 X64.146 Y105.913 E22.11001
G1 X64.37 Y103.342 E22.19585
G1 X64.515 Y100.856 E22.27867
G1 X64.591 Y98.324 E22.36292
G1 X64.616 Y94.662 E22.48473
G1 X64.633 Y94.228 E22.49917
G1 X64.779 Y91.652 E22.58499
G1 X64.853 Y89.085 E22.6704
G1 X64.853 Y86.563 E22.75428
G1 X64.782 Y84.024 E22.83876
G1 X64.63 Y81.298 E22.92957
G1 X64.604 Y80.158 E22.9675
G1 X64.603 Y77.197 E23.06598
G1 X64.614 Y76.325 E23.09499
G1 X64.646 Y75.647 E23.11756
G1 X64.67 Y75.351 E23.12744
G1 X64.811 Y74.256 E23.16416
G1 X65.133 Y72.904 E23.21039
G1 X65.244 Y72.542 E23.22298
G1 X65.559 Y71.657 E23.25422
G1 X65.969 Y70.766 E23.28685
G1 X66.193 Y70.336 E23.30297
G1 X66.954 Y69.081 E23.35179
G1 X67.643 Y68.189 E23.38928
G1 X67.851 Y67.947 E23.39989
G1 X68.488 Y67.267 E23.43088
G0 F6000 X68.76 Y67.56
G1 F900 X69.146 Y67.201 E23.44841
G1 X69.469 Y66.916 E23.46274
G1 X70.172 Y66.349 E23.49278
G1 X71.038 Y65.777 E23.5273
G1 X71.323 Y65.609 E23.5383
G1 X72.355 Y65.077 E23.57692
G1 X72.683 Y64.931 E23.58886
G1 X73.524 Y64.601 E23.61891
G1 X74.179 Y64.399 E23.64171
G1 X75.138 Y64.17 E23.6745
G1 X75.451 Y64.111 E23.68509
G1 X76.611 Y63.96 E23.724
G1 X77.441 Y63.916 E23.75164
G1 X78.29 Y63.904 E23.77988
G1 X81.56 Y63.906 E23.88865
G1 X82.243 Y63.917 E23.91137
G1 X83.145 Y63.972 E23.94142
G1 X84.038 Y64.106 E23.97146
G1 X84.922 Y64.32 E24.00171
G1 X87.391 Y65.037 E24.08722
G1 X89.816 Y65.668 E24.17056
G1 X92.34 Y66.248 E24.2567
G1 X94.778 Y66.738 E24.33941
G1 X97.3 Y67.169 E24.4245
G1 X99.797 Y67.525 E24.50839
G1 X102.361 Y67.817 E24.59423
G1 X104.85 Y68.029 E24.67731
G1 X107.411 Y68.174 E24.76263
G1 X109.945 Y68.246 E24.84694
G1 X112.477 Y68.246 E24.93115
G1 X115.017 Y68.174 E25.01567
G1 X117.57 Y68.03 E25.10072
G1 X120.072 Y67.817 E25.18424
G1 X122.619 Y67.528 E25.26949
G1 X125.112 Y67.173 E25.35325
G1 X127.643 Y66.74 E25.43865
G1 X130.106 Y66.246 E25.5222
G1 X132.575 Y65.679 E25.60646
G1 X135.075 Y65.028 E25.69238
G1 X137.572 Y64.311 E25.77879
G1 X138.45 Y64.1 E25.80882
G1 X139.344 Y63.968 E25.83888
G1 X140.079 Y63.92 E25.86338
G1 X140.713 Y63.905 E25.88447
G1 X142.7 Y63.904 E25.95056
G1 X143.701 Y63.917 E25.98385
G1 X144.603 Y63.97 E26.01391
G1 X145.164 Y64.043 E26.03272
G1 X145.509 Y64.098 E26.04434
G1 X146.393 Y64.28 E26.07436
G1 X147.203 Y64.512 E26.10239
G1 X148.056 Y64.809 E26.13243
G1 X149.047 Y65.267 E26.16874
G1 X149.442 Y65.476 E26.1836
G1 X150.583 Y66.179 E26.22818
G1 X150.808 Y66.339 E26.23736
G1 X151.765 Y67.111 E26.27825
G1 X151.978 Y67.305 E26.28784
G1 X152.85 Y68.203 E26.32947
G1 X153.086 Y68.478 E26.34152
G1 X153.644 Y69.189 E26.37158
G1 X154.129 Y69.935 E26.40118
G1 X154.289 Y70.206 E26.41164
G1 X154.831 Y71.258 E26.45101
G1 X155.019 Y71.682 E26.46643
G1 X155.348 Y72.523 E26.49647
G1 X155.601 Y73.389 E26.52648
G1 X155.783 Y74.265 E26.55623
G1 X155.95 Y75.556 E26.59953
G1 X155.995 Y76.466 E26.62983
G1 X156.004 Y77.21 E26.65458
G1 X156.003 Y102.714 E27.50285
G1 X155.992 Y103.487 E27.52856
G1 X155.972 Y103.991 E27.54534
G1 X155.911 Y104.949 E27.57726
G1 X155.784 Y107.519 E27.66285
G1 X155.729 Y110.09 E27.74838
G1 X155.746 Y112.621 E27.83256
G1 X155.838 Y115.236 E27.91959
G1 X155.886 Y116.109 E27.94867
G1 X155.907 Y116.895 E27.97482
G1 X155.911 Y142.739 E28.8344
G1 X155.898 Y143.79 E28.86936
G1 X155.818 Y144.938 E28.90763
G1 X155.78 Y145.238 E28.91769
G1 X155.63 Y146.115 E28.94728
G1 X155.544 Y146.512 E28.96079
G1 X155.325 Y147.35 E28.9896
G1 X155.25 Y147.594 E28.99809
G1 X154.89 Y148.581 E29.03303
G1 X154.75 Y148.911 E29.04496
G1 X154.299 Y149.851 E29.07963
G1 X153.773 Y150.737 E29.1139
G1 X153.57 Y151.046 E29.1262
G1 X152.996 Y151.835 E29.15865
G1 X152.82 Y152.054 E29.168
G1 X152.226 Y152.729 E29.1979
G1 X152.008 Y152.956 E29.20837
G1 X151.308 Y153.619 E29.24044
G1 X151.106 Y153.793 E29.24931
G1 X150.357 Y154.38 E29.28096
G1 X150.046 Y154.601 E29.29365
G1 X149.272 Y155.099 E29.32426
G1 X149.054 Y155.226 E29.33265
G1 X148.198 Y155.672 E29.36475
G1 X147.908 Y155.806 E29.37538
G1 X147.037 Y156.161 E29.40666
G1 X146.721 Y156.273 E29.41781
G1 X145.834 Y156.543 E29.44865
G1 X145.583 Y156.607 E29.45727
G1 X144.652 Y156.798 E29.48888
G1 X144.335 Y156.848 E29.49955
G1 X143.283 Y156.959 E29.53473
G1 X142.6 Y156.995 E29.55748
G1 X142.063 Y157.009 E29.57535
G1 X77.147 Y157.008 E31.73446
G1 X76.26 Y156.992 E31.76397
G1 X75.214 Y156.92 E31.79884
G1 X74.819 Y156.872 E31.81208
G1 X73.84 Y156.704 E31.84511
G1 X73.574 Y156.645 E31.85418
G1 X72.741 Y156.423 E31.88285
G1 X72.421 Y156.323 E31.894
G1 X71.492 Y155.982 E31.92691
G1 X71.227 Y155.87 E31.93648
G1 X70.377 Y155.464 E31.96781
G1 X70.088 Y155.309 E31.97872
G1 X69.206 Y154.785 E32.01284
G1 X68.335 Y154.153 E32.04864
G1 X68.037 Y153.915 E32.06132
G1 X67.321 Y153.287 E32.093
G1 X67.124 Y153.097 E32.1021
